X: 40449
T: Tom Rowsome's
R: slide
M: 12/8
K: Gmajor
D|G2B ~d2g e2d c2A|~d2 c B2G A2G FED|
G2B ~d2g e2d c2A|B2d cAF "roll"~G3 G2:|
B|"roll"~A3 "cran"~D3 "roll"~B3 "roll"~G3|"roll"~c3 ABc ~d3 d2B|
c2B c2d e2d c2A|B2.d cAF "roll"~G3 G2:|

